**kern	**text	**kern	**text	**kern	**text	**kern	**text	**kern	**text	**cdata-harm
*staff5	*staff5	*staff4	*staff4	*staff3	*staff3	*staff2	*staff2	*staff1	*staff1	*
=1-	=1-	=1-	=1-	=1-	=1-	=1-	=1-	=1-	=1-	=1-
*clefF4	*	*clefGv2	*	*clefG2	*	*clefG2	*	*clefG2	*	*
*k[b-]	*	*k[b-]	*	*k[b-]	*	*k[b-]	*	*k[b-]	*	*
*M4/4	*	*M4/4	*	*M4/4	*	*M4/4	*	*M4/4	*	*
1G\	Men-	1d\	Men-	1g/	Men-	1b-\	Men-	1r	.	<HOM_4v
=2	=2	=2	=2	=2	=2	=2	=2	=2	=2	.
4D\	tre	4d\	tre	4f#/	tre	4a/	tre	1r	.	.
[4G\	l'au-	[4d\	l'au-	[4g/	l'au-	[4b-\	l'au-	.	.	.
8G\L]	.	8d\L]	.	8g/L]	.	8b-\L]	.	.	.	.
8G\J	ra	8d\J	ra	8g/J	ra	8b-\J	ra	.	.	.
4F\	spi-	4f\	spi-	4a/	spi-	4cc\	spi-	.	.	.
=3	=3	=3	=3	=3	=3	=3	=3	=3	=3	.
2B-\	r&ograve;	1f\	r&ograve;	2b-\	r&ograve;	4dd\	r&ograve;	4r	.	>
.	.	.	.	.	.	4b-\	nel	4dd\	nel	<CONlib_3v+1doub
2F\	nel	.	.	4r	.	8a/L	ver-	8ff\L	ver-	.
.	.	.	.	.	.	8g/J	.	8ee\J	.	.
.	.	.	.	4a/	nel	8f/L	.	8dd\L	.	.
.	.	.	.	.	.	8e/J	.	8cc\J	.	.
=4	=4	=4	=4	=4	=4	=4	=4	=4	=4	.
4G\	ver-	1r	.	4.g/	ver-	4d/	.	4b-\	.	.
4G\	de	.	.	.	.	4b-\	de	4dd\	de	.
.	.	.	.	8f/	de	.	.	.	.	.
2A\	lau-	.	.	2e/	lau-	2a/	lau-	2cc#\	lau-	.
=5	=5	=5	=5	=5	=5	=5	=5	=5	=5	.
2D\	ro	2r	.	2f#/	ro	2a/	ro	1dd\	ro	>
2G\	fe-	2d\	fe-	4r	.	2b-\	fe-	.	.	<HOM_5v
.	.	.	.	4g/	fe-	.	.	.	.	.
=6	=6	=6	=6	=6	=6	=6	=6	=6	=6	.
4.F\	li-	4.f\	li-	4.a/	li-	4.cc\	li-	1r	.	.
8E\	ce	8g\	ce	8g/	ce	8cc\	ce	.	.	.
4F\	fu	4f\	fu	4a/	fu	4cc\	fu	.	.	.
4D\	l'ar-	4f\	l'ar-	4b-\	l'ar-	4dd\	l'ar-	.	.	.
=7	=7	=7	=7	=7	=7	=7	=7	=7	=7	.
2C/	do-	2e\	do-	2cc\	do-	2g/	do-	2r	.	.
4C/	re	4c\	re	2g/	re	4e/	re	2cc\	con	.
4c\	con	4e\	con	.	.	4g/	con	.	.	.
=8	=8	=8	=8	=8	=8	=8	=8	=8	=8	.
4.B-\	che	4.f\	che	1r	.	4.b-\	che	4.dd\	che	.
8A\	m'ac-	8f\	m'ac-	.	.	8cc\	m'ac-	8cc\	m'ac-	.
4B-\	ce-	4f\	ce-	.	.	4b-\	ce	4dd\	ce-	.
4G\	seil	4g\	seil	.	.	4b-\	seil	4ee\	seil	.
=9	=9	=9	=9	=9	=9	=9	=9	=9	=9	.
2F\	co-	2a\	co-	2r	.	2cc\	co-	2ff\	co-	.
4F\	re	2f\	re	4r	.	2a/	re	4cc\	re	>
4F\	che	.	.	4a/	che	.	.	4ff\	che	<ANTIF_6v
=10	=10	=10	=10	=10	=10	=10	=10	=10	=10	.
2B-\	lie-	2r	.	8f/L	lie-	2r	.	8dd\L	lie-	.
.	.	.	.	8e/J	.	.	.	8cc\J	.	.
.	.	.	.	8f/L	.	.	.	8dd\L	.	.
.	.	.	.	8g/J	.	.	.	8ee\J	.	.
2F\	toa	4r	.	2a/	.	4r	.	2ff\	.	.
.	.	4A/	che	.	.	4cc\	che	.	.	.
=11	=11	=11	=11	=11	=11	=11	=11	=11	=11	.
2G\	l'om-	8d\L	lie-	2g/	to	8b-\L	lie-	2dd\	to	.
.	.	8c\J	.	.	.	8a\J	.	.	.	.
.	.	8d\L	.	.	.	8b-\L	.	.	.	.
.	.	8e\J	.	.	.	8cc\J	.	.	.	.
4D\	bra	[2f\	.	4r	.	2dd\	.	4r	.	.
4D\	che	.	.	4a/	che	.	.	4ff\	che	.
=12	=12	=12	=12	=12	=12	=12	=12	=12	=12	.
2B-\	lie-	4f\]	.	8f/L	lie-	2b-\	to	8dd\L	lie-	.
.	.	.	.	8e/J	.	.	.	8cc\J	.	.
.	.	4d\	to	8f/L	.	.	.	8dd\L	.	.
.	.	.	.	8g/J	.	.	.	8ee\J	.	.
2F\	toa	4r	.	2a/	.	4r	.	2ff\	.	.
.	.	4A/	che	.	.	4cc\	che	.	.	.
=13	=13	=13	=13	=13	=13	=13	=13	=13	=13	.
2G\	l'om-	8d\L	lie-	2g/	to	8b-\L	lie-	2dd\	to	.
.	.	8c\J	.	.	.	8a\J	.	.	.	.
.	.	8d\L	.	.	.	8b-\L	.	.	.	.
.	.	8e\J	.	.	.	8cc\J	.	.	.	.
4D\	bra	[2f\	.	2r	.	[2dd\	to	4r	.	.
4d\	che	.	.	.	.	.	.	4a/	che	.
=14	=14	=14	=14	=14	=14	=14	=14	=14	=14	.
8B-\L	lie-	2f\]	.	4r	.	2dd\]	.	8dd\L	lie-	.
8A\J	.	.	.	.	.	.	.	8cc\J	.	.
8B-\L	.	.	.	4d/	che	.	.	8dd\L	.	.
8c\J	.	.	.	.	.	.	.	8ee\J	.	.
4d\	.	2f\	toa	8d/L	lie-	2dd\	a	4ff\	.	.
.	.	.	.	8c/J	.	.	.	.	.	.
4B-\	toa	.	.	8d/L	.	.	.	4dd\	toa	.
.	.	.	.	8e/J	.	.	.	.	.	.
=15	=15	=15	=15	=15	=15	=15	=15	=15	=15	.
1B-\	l'om-	1f\	l'om-	4f/	.	1b-\	l'om-	1dd\	l'om-	.
.	.	.	.	4d/	toa	.	.	.	.	.
.	.	.	.	2B-/	l'om-	.	.	.	.	.
=16	=16	=16	=16	=16	=16	=16	=16	=16	=16	.
1F\	bra	2.f\	bra	2c/	bra	1a/	bra	1cc\	bra	>
.	.	.	.	4c/	de	.	.	.	.	<CON_4v
.	.	8e\L	.	4d/	l'a-	.	.	.	.	.
.	.	8d\J	.	.	.	.	.	.	.	.
=17	=17	=17	=17	=17	=17	=17	=17	=17	=17	.
1r	.	1c\	.	4e/	ma-	2r	.	4cc\	de	.
.	.	.	.	4f/	te	.	.	4dd\	l'a-	.
.	.	.	.	2g/	fo-	4g/	de	4ee\	ma-	.
.	.	.	.	.	.	4a/	l'a-	4ff\	te	.
=18	=18	=18	=18	=18	=18	=18	=18	=18	=18	.
1r	.	4G/	de	1g/	glie	4b-\	ma-	4gg\	fo-	.
.	.	4A/	l'a-	.	.	4cc\	te	8ff\L	.	.
.	.	.	.	.	.	.	.	8ee\J	.	.
.	.	4B-\	ma-	.	.	4b-\	fo-	4dd\	.	.
.	.	4c\	te	.	.	8a/L	.	8cc\L	.	.
.	.	.	.	.	.	8g/J	.	8b-\J	.	.
=19	=19	=19	=19	=19	=19	=19	=19	=19	=19	.
1r	.	1d\	fo-	1r	.	4f#/	.	4a/	.	.
.	.	.	.	.	.	2g/	.	4g/	.	.
.	.	.	.	.	.	.	.	2a/	.	.
.	.	.	.	.	.	4f#/	.	.	.	.
=20	=20	=20	=20	=20	=20	=20	=20	=20	=20	.
2r	.	2G/	glie	2r	.	1g/	glie	2g/	glie	>
[2G\	ad-	[2d\	ad-	[2g/	ad-	.	.	[2b-\	ad-	<HOM_5v
=21	=21	=21	=21	=21	=21	=21	=21	=21	=21	.
2G\]	.	2d\]	.	2g/]	.	1r	.	2b-\]	.	.
2A\	dol-	2c#\	dol-	2e/	dol-	.	.	2a/	dol-	.
=22	=22	=22	=22	=22	=22	=22	=22	=22	=22	.
[1A\	c&igrave;a	1c#\	c&igrave;a	1e/	c&igrave;a	2r	.	1a/	c&igrave;a	.
.	.	.	.	.	.	[2e/	le	.	.	.
=23	=23	=23	=23	=23	=23	=23	=23	=23	=23	.
1A\_	.	2e\	le	2a/	le	2e/]	.	2cc#\	le	.
.	.	[2d\	mie	2a/	mie	2f/	mie	2dd\	mie	.
=24	=24	=24	=24	=24	=24	=24	=24	=24	=24	.
1A\]	.	2d\]	.	1a/	do-	1e/	do-	1ee\	do-	.
.	.	2c#\	do-	.	.	.	.	.	.	.
=25	=25	=25	=25	=25	=25	=25	=25	=25	=25	.
[1D\	ad-	1d\	glie	1a/	glie	2d/	glie	1ff\	glie	><CONlib_4v+1doub
.	.	.	.	.	.	[2a/	ad-	.	.	.
=26	=26	=26	=26	=26	=26	=26	=26	=26	=26	.
2D\]	.	2d\	ad-	2f/	ad-	2a/]	.	1r	.	.
2E\	dol-	2Bn\	dol-	2e/	dol-	2g#/	dol-	.	.	.
=27	=27	=27	=27	=27	=27	=27	=27	=27	=27	.
1E\	c&igrave;a	1B-\	c&igrave;a	1e/	c&igrave;a	1g#/	c&igrave;a	2r	.	.
.	.	.	.	.	.	.	.	[2ee\	le	.
=28	=28	=28	=28	=28	=28	=28	=28	=28	=28	.
2C#/	le	1r	.	2e/	ad-	1a/	le	2ee\]	.	.
2D\	mie	.	.	[2d/	dol-	.	.	[2ff\	mie	.
=29	=29	=29	=29	=29	=29	=29	=29	=29	=29	.
[1A\	do-	2r	.	2d/]	.	1a/	mie	2ff\]	.	.
.	.	[2e\	le	2c#/	c&igrave;a	.	.	[2ee\	do-	.
=30	=30	=30	=30	=30	=30	=30	=30	=30	=30	.
1A\_	.	2e\]	.	2c/	le	[1a/	do-	2ee\]	.	.
.	.	2f\	mie	2d/	mie	.	.	[2dd\	.	.
=31	=31	=31	=31	=31	=31	=31	=31	=31	=31	.
1A\]	.	1e\	do-	1e/	do-	1a/]	.	2dd\]	.	.
.	.	.	.	.	.	.	.	2cc#\	.	.
=32	=32	=32	=32	=32	=32	=32	=32	=32	=32	.
1D\	glie.	1d\	glie.	1f#/	glie.	1a/	glie.	1dd\	glie.	>
=33||	=33||	=33||	=33||	=33||	=33||	=33||	=33||	=33||	=33||	.
1r	.	1d\	Hor	1f#/	Hor	1a/	Hor	1dd\	Hor	<HOM_4v
=34	=34	=34	=34	=34	=34	=34	=34	=34	=34	.
1r	.	4r	.	4r	.	4r	.	4r	.	.
.	.	4G/	per-	4g/	per-	4bn\	per-	4dd\	per-	.
.	.	[2c\	ch&eacute;-	[2g/	ch&eacute;	[2cc\	ch&eacute;	[2ee\	ch&eacute;	.
=35	=35	=35	=35	=35	=35	=35	=35	=35	=35	.
1r	.	2c\]	.	2g/]	.	2cc\]	.	2ee\]	.	.
.	.	4B-\	(las-	4b-\	(las-	[2dd\	(las-	[2ff\	(las-	>
.	.	4d\	sooi-	4a/	sooi-	.	.	.	.	<ANTIF_4v
=36	=36	=36	=36	=36	=36	=36	=36	=36	=36	.
1r	.	2A/	m&egrave;	2a/	m&egrave;	4dd\]	.	4ff\]	.	.
.	.	.	.	.	.	4cc#\	.	4ee\	sooi-	.
.	.	4r	.	4r	.	2cc#\	so	2ee\	m&egrave;-	.
.	.	4A/	oi-	4a/	oi-	.	.	.	.	.
=37	=37	=37	=37	=37	=37	=37	=37	=37	=37	.
1r	.	1A/	m&egrave;)	1e/	m&egrave;)	4r	.	4r	.	.
.	.	.	.	.	.	4a/	oi-	4cc#\	oi-	.
.	.	.	.	.	.	[2a/	m&egrave;)	2cc#\	m&egrave;)	>
=38	=38	=38	=38	=38	=38	=38	=38	=38	=38	.
1r	.	2d\	sec-	1r	.	2a/]	.	4r	.	<CON_4v
.	.	.	.	.	.	.	.	2dd\	sec-	.
.	.	2e\	co	.	.	2r	.	.	.	.
.	.	.	.	.	.	.	.	[4cc\	co	.
=39	=39	=39	=39	=39	=39	=39	=39	=39	=39	.
1r	.	4f#\	ti	2r	.	2r	.	4cc\]	.	.
.	.	2g\	ve-	.	.	.	.	4b-\	ti	.
.	.	.	.	2d/	sec-	4r	.	2a/	ve-	.
.	.	4f#\	.	.	.	[4dd\	sec-	.	.	.
=40	=40	=40	=40	=40	=40	=40	=40	=40	=40	.
1r	.	2g\	do?	2e/	co	4dd\]	.	2g/	do?	.
.	.	.	.	.	.	2cc\	co	.	.	.
.	.	2r	.	4f#/	ti	.	.	2r	.	.
.	.	.	.	[4g/	ve-	4b-\	ti	.	.	.
=41	=41	=41	=41	=41	=41	=41	=41	=41	=41	.
1r	.	2d\	sec-	4g/]	.	2a/	ve-	4r	.	.
.	.	.	.	4f/	.	.	.	2dd\	sec-	.
.	.	2e\	co	2g/	do?	2g/	do?	.	.	.
.	.	.	.	.	.	.	.	[4cc\	co	.
=42	=42	=42	=42	=42	=42	=42	=42	=42	=42	.
1r	.	4f#\	ti	1r	.	1r	.	4cc\]	.	.
.	.	2g\	ve-	.	.	.	.	4b-\	ti	.
.	.	.	.	.	.	.	.	2a/	ve-	.
.	.	4f#\	.	.	.	.	.	.	.	.
=43	=43	=43	=43	=43	=43	=43	=43	=43	=43	.
2r	.	1g\	do?	2r	.	2r	.	2g/	do?-	>
4G\	For-	.	.	4g/	For-	4b-\	For-	4dd\	For-	<HOM_4v+CON_1v
4G\	si&egrave;il	.	.	4g/	si&egrave;il	4b-\	si&egrave;il	4dd\	si&egrave;il	.
=44	=44	=44	=44	=44	=44	=44	=44	=44	=44	.
8G\L	fo-	4d\	For-	2g/	fo-	2b-\	fo-	2dd\	fo-	.
8A\J	.	.	.	.	.	.	.	.	.	.
8B-\L	.	4d\	si&egrave;il	.	.	.	.	.	.	.
8c\J	.	.	.	.	.	.	.	.	.	.
4d\	.	8d\L	fo-	4f#/	co	4a/	co	2dd\	co	.
.	.	8c\J	.	.	.	.	.	.	.	.
4G\	co	8B-\L	.	[4g/	for-	[4b-\	for-	.	.	.
.	.	8A\J	.	.	.	.	.	.	.	.
=45	=45	=45	=45	=45	=45	=45	=45	=45	=45	.
4G\	for-	4G/	.	4g/]	.	4b-\]	.	4dd\	for-	.
4G\	si&egrave;il	4d\	co	4g/	si&egrave;il	4b-\	si&egrave;il	4dd\	si&egrave;il	.
8G\L	fo-	4d\	for-	2g/	fo-	2b-\	fo-	2dd\	fo-	.
8A\J	.	.	.	.	.	.	.	.	.	.
8B-\L	.	4d\	si&egrave;il	.	.	.	.	.	.	.
8c\J	.	.	.	.	.	.	.	.	.	.
=46	=46	=46	=46	=46	=46	=46	=46	=46	=46	.
4d\	.	8d\L	fo-	4f/	co	4a/	co	2dd\	co	.
.	.	8c\J	.	.	.	.	.	.	.	.
4G\	co	8B-\L	.	[4b-\	che	[4dd\	che	.	.	.
.	.	8A\J	.	.	.	.	.	.	.	.
4r	.	4G/	.	8b-/L]	.	8dd\L]	.	2dd\	che	.
.	.	.	.	16a/L	.	8cc\J	.	.	.	.
.	.	.	.	16g/JJ	.	.	.	.	.	.
4B-\	che-	4d\	co	4f/	.	4b-\	.	.	.	.
=47	=47	=47	=47	=47	=47	=47	=47	=47	=47	.
4.F\	mo-	1r	.	4.f/	mo-	4.a/	mo-	4.cc\	mo-	.
8E\	ve	.	.	8g/	ve	8g/	ve	8cc\	ve	.
4F\	l'al-	.	.	4a/	l'al-	4f/	l'al-	4cc\	l'al-	.
4G\	ma	.	.	4g/	ma	4d/	ma	4b-\	ma	.
=48	=48	=48	=48	=48	=48	=48	=48	=48	=48	.
4.D\	de'	1r	.	4.f#/	de'	4.d/	de'	4.a/	de'	.
8G\	sos-	.	.	8g/	sos-	8d/	sos-	8b-\	sos-	.
2F\	pir	.	.	2a/	pir	2f/	pir	2cc\	pir	.
=49	=49	=49	=49	=49	=49	=49	=49	=49	=49	.
4BB-/	miei	4r	.	1b-\	miei	[1f/	miei	1dd\	miei	>
4B-\	cal-	4d\	cal-	.	.	.	.	.	.	<ANTIF_3v
4B-\	diet	4d\	diet	.	.	.	.	.	.	.
4c\	ar-	4e\	ar-	.	.	.	.	.	.	.
=50	=50	=50	=50	=50	=50	=50	=50	=50	=50	.
8d\L	den-	8f\L	den-	4r	.	2f/]	.	4r	.	.
8c\J	.	8e\J	.	.	.	.	.	.	.	.
8B-\L	.	8d\L	.	4f/	cal-	.	.	4dd\	cal-	.
8A\J	.	8c\J	.	.	.	.	.	.	.	.
4B-\	.	4d\	.	4f/	diet	2r	.	4dd\	diet	.
8A\L	.	8c\L	.	4g/	ar-	.	.	4ee\	ar-	.
8G\J	.	8B-\J	.	.	.	.	.	.	.	.
=51	=51	=51	=51	=51	=51	=51	=51	=51	=51	.
8F\L	.	[1A/	.	8a/L	den-	4r	.	2.ff\	den-	.
8E\J	.	.	.	8g/J	.	.	.	.	.	.
8D\L	.	.	.	8f/L	.	4f/	cal-	.	.	.
8C\J	.	.	.	8e/J	.	.	.	.	.	.
4D\	.	.	.	2d/	.	4f/	diet	.	.	.
8C/L	.	.	.	.	.	4g/	ar-	8ee\L	.	.
8BB-/J	.	.	.	.	.	.	.	8dd\J	.	.
=52	=52	=52	=52	=52	=52	=52	=52	=52	=52	.
4AA/	.	1A/]	.	1e/	ti?	1a/	den-	4cc#\	.	.
4GG/	.	.	.	.	.	.	.	2dd\	.	.
2AA/	.	.	.	.	.	.	.	.	.	.
.	.	.	.	.	.	.	.	4cc#\	.	.
=53	=53	=53	=53	=53	=53	=53	=53	=53	=53	.
1D\	ti?	2A/	ti?	1f#/	Ma	1a/	ti?	1dd\	ti?-	>
.	.	[2d\	Ma	.	.	.	.	.	.	<CON_2v+1trip
=54	=54	=54	=54	=54	=54	=54	=54	=54	=54	.
1G\	Ma	2d\]	.	[1g/	tu	1bn\	Ma	1dd\	Ma	.
.	.	[2G/	tu	.	.	.	.	.	.	.
=55	=55	=55	=55	=55	=55	=55	=55	=55	=55	.
1C/	tu	2G/]	.	1g/]	.	1cc\	tu	[1ee\	tu	>
.	.	8g\L	l'i-	.	.	.	.	.	.	<ANTIF_6v
.	.	8f\J	.	.	.	.	.	.	.	.
.	.	8e\L	.	.	.	.	.	.	.	.
.	.	8d\J	.	.	.	.	.	.	.	.
=56	=56	=56	=56	=56	=56	=56	=56	=56	=56	.
8c\L	l'i-	2c\	.	2r	.	8een\L	l'i-	2ee\]	.	.
8B-\J	.	.	.	.	.	8dd\J	.	.	.	.
8A\L	.	.	.	.	.	8cc\L	.	.	.	.
8G\J	.	.	.	.	.	8b-\J	.	.	.	.
2F\	.	2c\	ra	8a/L	l'i-	4a/	.	8ff\L	l'i-	.
.	.	.	.	8g/J	.	.	.	8ee\J	.	.
.	.	.	.	8f/L	.	4a/	ra	8dd\L	.	.
.	.	.	.	8e/J	.	.	.	8cc\J	.	.
=57	=57	=57	=57	=57	=57	=57	=57	=57	=57	.
2G\	ra	8g\L	l'i-	4d/	.	8b-/L	l'i-	4b-\	.	.
.	.	8f\J	.	.	.	8a/J	.	.	.	.
.	.	8e\L	.	4d/	ra	8g/L	.	4b-\	ra	.
.	.	8d\J	.	.	.	8f/J	.	.	.	.
2A\	di	4c\	.	8a/L	l'i-	4e/	.	8cc/L	l'i-	.
.	.	.	.	8g/J	.	.	.	8b-/J	.	.
.	.	4c\	ra	8f/L	.	4cc\	ra	8a/L	.	.
.	.	.	.	8e/J	.	.	.	8g/J	.	.
=58	=58	=58	=58	=58	=58	=58	=58	=58	=58	.
1B-\	Gio-	8f\L	l'i-	2d/	.	4r	.	4f/	.	.
.	.	8e\J	.	.	.	.	.	.	.	.
.	.	8d\L	.	.	.	4dd\	di	4f/	ra	.
.	.	8c\J	.	.	.	.	.	.	.	.
.	.	2B-\	.	4d/	ra	4dd\	Gio-	2ff\	di	.
.	.	.	.	4e/	di	8cc\L	.	.	.	.
.	.	.	.	.	.	8b-\J	.	.	.	.
=59	=59	=59	=59	=59	=59	=59	=59	=59	=59	.
1F\	ve	4c\	ra	1f/	Gio-	4a/	.	1ff\	Gio-	.
.	.	4d\	di	.	.	2b-\	.	.	.	.
.	.	2c\	Gio-	.	.	.	.	.	.	.
.	.	.	.	.	.	4a/	.	.	.	.
=60	=60	=60	=60	=60	=60	=60	=60	=60	=60	.
2r	.	1B-\	ve	2f/	ve	1b-\	ve	2dd\	ve	>
2B-\	n&eacute;il	.	.	4r	.	.	.	4r	.	.
.	.	.	.	4b-\	n&eacute;il	.	.	4dd\	n&eacute;il	<ANTIF_5v
=61	=61	=61	=61	=61	=61	=61	=61	=61	=61	.
8d\L	ful-	4r	.	8a/L	ful-	4r	.	8ff\L	ful-	.
8c\J	mi-	.	.	8a/J	mi-	.	.	8ee\J	mi-	.
8B-\L	ne	4G/	n&eacute;il	8b-\L	ne	4b-\	n&eacute;il	8dd\L	ne	.
8A\J	pa-	.	.	8cc\J	pa-	.	.	8cc\J	pa-	.
2G\	ven-	8G/L	ful-	4dd\	ven-	8b-\L	ful-	2b-\	ven-	.
.	.	8A/J	mi-	.	.	8cc\J	mi-	.	.	.
.	.	8B-\L	ne	4g/	ti	8dd\L	ne	.	.	.
.	.	8c\J	pa-	.	.	8ee\J	pa-	.	.	.
=62	=62	=62	=62	=62	=62	=62	=62	=62	=62	.
4D\	ti	2d\	ven-	4r	.	2ff\	ven-	4a/	ti	.
4B-\	n&eacute;il	.	.	4b-\	n&eacute;il	.	.	4dd\	n&eacute;il	.
8d\L	ful-	4d\	ti	8a/L	ful-	4ff\	ti	8ff\L	ful-	.
8c\J	mi-	.	.	8a/J	mi-	.	.	8ee\J	mi-	.
8B-\L	ne	4G/	n&eacute;il	8b-\L	ne	4b-\	n&egrave;il	8dd\L	ne	.
8A\J	pa-	.	.	8cc\J	pa-	.	.	8cc\J	pa-	.
=63	=63	=63	=63	=63	=63	=63	=63	=63	=63	.
2G\	ven-	8G/L	ful-	4dd\	ven-	8b-\L	ful-	2b-\	ven-	.
.	.	8A/J	mi-	.	.	8cc\J	mi-	.	.	.
.	.	8B-\L	ne	4g/	ti.	8dd\L	ne	.	.	.
.	.	8c\J	pa-	.	.	8ee\J	pa-	.	.	.
2D\	ti.	2d\	ven-	2r	.	2ff\	ven-	2a/	ti.	>
=64	=64	=64	=64	=64	=64	=64	=64	=64	=64	.
[1B-\	Ah&iacute;	1d\	ti.	[1f/	Ah&iacute;	[1b-\	ti.	[1dd\	Ah&iacute;,	.
=65	=65	=65	=65	=65	=65	=65	=65	=65	=65	.
1B-\]	.	[1B-\	Ah&iacute;	1f/]	.	1b-\]	.	1dd\]	.	.
=66	=66	=66	=66	=66	=66	=66	=66	=66	=66	.
1E-\	ah&iacute;	2B-\]	.	[1g/	ah&iacute;	[1b-\	Ah&iacute;	2r	.	.
.	.	[2e\	ah&iacute;	.	.	.	.	[2ee-\	ah&iacute;	.
=67	=67	=67	=67	=67	=67	=67	=67	=67	=67	.
1r	.	2e\]	.	2g/]	.	2b-\]	.	2ee-\]	.	.
.	.	4B-\	per	4f/	per	4b-\	per	4dd\	per	<HOM_4v
.	.	4c\	me	4e/	me	4g/	me	4cc\	me	.
=68	=68	=68	=68	=68	=68	=68	=68	=68	=68	.
1r	.	1G/	sec-	1d/	sec-	1g/	sec-	1bn\	sec-	.
=69	=69	=69	=69	=69	=69	=69	=69	=69	=69	.
1r	.	4G/	co	4d/	co	4g/	co	4b-\	co	.
.	.	2c\	eadal-	2e/	eadal-	2g/	eadal-	2cc\	eadal-	.
.	.	4F/	tri	4f/	tri	4a/	tri	4cc\	tri	.
=70	=70	=70	=70	=70	=70	=70	=70	=70	=70	.
1r	.	4B-\	ver-	4f/	ver-	4b-\	ver-	4dd\	ver-	.
.	.	4G/	deio	4b-\	deio	4dd\	deio	4gg\	deio	.
.	.	2d\	cre-	2a/	cre-	2dd\	cre-	2ff#\	cre-	.
=71	=71	=71	=71	=71	=71	=71	=71	=71	=71	.
4r	.	2G/	do	4g/	do	1dd\	do	2gg\	do	>
4G\	io	.	.	4d/	io	.	.	.	.	<ANTIF_2v
2F#\	cre-	2r	.	2a/	cre-	.	.	2r	.	.
=72	=72	=72	=72	=72	=72	=72	=72	=72	=72	.
2G\	do	4r	.	[1d/	do	4r	.	4r	.	.
.	.	4G/	io	.	.	4b-\	io	4gg\	io	.
2r	.	2d\	cre-	.	.	2a/	cre-	2ff#\	cre-	.
=73	=73	=73	=73	=73	=73	=73	=73	=73	=73	.
2r	.	1G/	do	1d/]	.	2g/	do	2gg\	do	>
[2G\	che	.	.	.	.	[2b-\	che	[2dd\	che	<HOM_5v
=74	=74	=74	=74	=74	=74	=74	=74	=74	=74	.
2G\]	.	2B-\	che	2g/	che	2b-\]	.	2dd\]	.	.
[2E-\	sot-	[2G/	sot	[2g/	sot-	[2b-\	sot-	[2ee-\	sot-	.
=75	=75	=75	=75	=75	=75	=75	=75	=75	=75	.
2E-\]	.	2G/]	.	2g/]	.	2b-\]	.	2ee-\]	.	.
2BB-/	toai	2B-\	toai	2f/	toai	2b-\	toai	2dd\	toai	.
=76	=76	=76	=76	=76	=76	=76	=76	=76	=76	.
1F\	sa-	1c\	sa-	1f/	sa-	1a/	sa-	1cc\	sa-	.
=77	=77	=77	=77	=77	=77	=77	=77	=77	=77	.
2F\	cri	2A/	cri	2f/	cri	2a/	cri	2cc\	cri	.
[2C/	ra-	[2c\	ra-	[2e/	ra-	[2g/	ra-	[2cc\	ra-	.
=78	=78	=78	=78	=78	=78	=78	=78	=78	=78	.
2C/]	.	2c\]	.	2e/]	.	2g/]	.	2cc\]	.	.
2G\	miun	2B-\	miun	[2g/	miun	2b-\	miun	[2dd\	miun	.
=79	=79	=79	=79	=79	=79	=79	=79	=79	=79	.
1D\	so-	1d\	so-	2g/]	.	1a/	so-	2dd\]	.	.
.	.	.	.	[2f/	so-	.	.	2a/	so-	.
=80	=80	=80	=80	=80	=80	=80	=80	=80	=80	.
1G\	gno	2d\	gno	2f/]	.	1g/	gno	2bn\	gno	.
.	.	[2g\	ta-	2e/	gno	.	.	[2cc\	ta-	.
=81	=81	=81	=81	=81	=81	=81	=81	=81	=81	.
1G\	ta-	4g\]	.	1d/	ta-	1g/	ta-	4cc\]	.	.
.	.	8f\L	.	.	.	.	.	8b-/L	.	.
.	.	8e\J	.	.	.	.	.	8a/J	.	.
.	.	2d\	.	.	.	.	.	2b-\	.	.
=82	=82	=82	=82	=82	=82	=82	=82	=82	=82	.
2C/	le	4e\	le	4c/	le	2g/	le	[1cc\	le	>
.	.	4c\	ve-	4e/	ve-	.	.	.	.	<CON_2v+2doub
4r	.	4.A/	der	4.a/	der	4r	.	.	.	.
4c\	ve-	.	.	.	.	4e/	ve-	.	.	.
.	.	8E/	mi	8g/	mi	.	.	.	.	.
=83	=83	=83	=83	=83	=83	=83	=83	=83	=83	.
4.A\	der	4F/	f&eacute;	4f/	f&eacute;	4.a/	der	1cc\_	.	.
.	.	4c\	ve-	4e/	ve-	.	.	.	.	.
8E\	mi	.	.	.	.	8g/	mi	.	.	.
4F\	f&eacute;	4.A/	der	4.a/	der	4f/	f&eacute;	.	.	.
4c\	ve-	.	.	.	.	4e/	ve-	.	.	.
.	.	8E/	mi	8g/	mi	.	.	.	.	.
=84	=84	=84	=84	=84	=84	=84	=84	=84	=84	.
4.A\	der	4F/	f&eacute;	4f/	f&eacute;	4.a/	der	1cc\]	.	.
.	.	4c\	ve-	4e/	ve-	.	.	.	.	.
8E\	mi	.	.	.	.	8g/	mi	.	.	.
2F\	f&eacute;	4.A/	der	4.a/	der	2f/	f&eacute;	.	.	.
.	.	8c\	mi	8g/	mi	.	.	.	.	.
=85	=85	=85	=85	=85	=85	=85	=85	=85	=85	.
4r	.	2d\	f&eacute;	2f/	f&eacute;	4r	.	4r	.	>
4d\	la	.	.	.	.	4a/	la	4ff\	la	<ANTIF_2v
4A\	tua	2r	.	2r	.	4cc\	tua	4ee\	tua	.
4B-\	vir-	.	.	.	.	4b-\	vir-	4dd\	vir-	.
=86	=86	=86	=86	=86	=86	=86	=86	=86	=86	.
2F\	t&uacute;	4r	.	4r	.	2a/	t&uacute;	2cc\	t&uacute;	.
.	.	4f\	la	4a/	la	.	.	.	.	.
2G\	fa-	4e\	tua	4g/	tua	2b-\	fa-	2r	.	.
.	.	4d\	vir-	4f/	vir-	.	.	.	.	.
=87	=87	=87	=87	=87	=87	=87	=87	=87	=87	.
1A\	ta-	4c#\	t&uacute;	4e/	t&uacute;	1a/	ta-	1r	.	.
.	.	4d\	fa-	4d/	fa-	.	.	.	.	.
.	.	2e\	ta-	2c#/	ta-	.	.	.	.	.
=88	=88	=88	=88	=88	=88	=88	=88	=88	=88	.
[1D\	le	4f\	le	2d/	le	2a/	le	4r	.	>
.	.	4d\	ve-	.	.	.	.	4ff\	ve-	<CON_2v+2doub_rep
.	.	4.f\	der	4r	.	4r	.	4.dd\	der	.
.	.	.	.	4d/	ve-	4ff\	ve-	.	.	.
.	.	8f\	mi	.	.	.	.	8a/	mi	.
=89	=89	=89	=89	=89	=89	=89	=89	=89	=89	.
1D\_	.	4a\	f&eacute;	4.f/	der	4.dd\	der	4ff\	f&eacute;	.
.	.	4d\	ve-	.	.	.	.	4ff\	ve-	.
.	.	.	.	8f/	mi	8a/	mi	.	.	.
.	.	4.f\	der	4a/	f&eacute;	4ff\	f&eacute;	4.dd\	der	.
.	.	.	.	4d/	ve-	4ff\	ve-	.	.	.
.	.	8f\	mi	.	.	.	.	8a/	mi	.
=90	=90	=90	=90	=90	=90	=90	=90	=90	=90	.
1D\]	.	2a\	f&eacute;	4.f/	der	4.dd\	der	2ff\	f&eacute;	.
.	.	.	.	8f/	mi	8a/	mi	.	.	.
.	.	2d\	la	4a/	f&eacute;	4ff\	f&eacute;	4r	.	>
.	.	.	.	4a/	la	4dd\	la	4ff\	la	<HOM_4v
=91	=91	=91	=91	=91	=91	=91	=91	=91	=91	.
1r	.	4A/	tua	4a/	tua	4cc\	tua	4ee\	tua	.
.	.	4B-\	vir-	4f/	vir-	4b-\	vir-	4dd\	vir-	.
.	.	4F/	t&uacute;	4f/	t&uacute;	4a/	t&uacute;	4cc\	t&uacute;	.
.	.	4G/	fa-	[4d/	fa-	4g/	fa-	4b-\	fa-	.
=92	=92	=92	=92	=92	=92	=92	=92	=92	=92	.
1r	.	1A/	ta-	4d/]	.	4f/	ta-	1a/	ta-	.
.	.	.	.	8c/L	.	8e/L	.	.	.	.
.	.	.	.	8B-/J	.	8d/J	.	.	.	.
.	.	.	.	2c/	ta-	2e/	.	.	.	.
=93	=93	=93	=93	=93	=93	=93	=93	=93	=93	.
4r	.	2D/	le	[1d/	le	2f/	le	4a/	le	>
4d\	ve-	.	.	.	.	.	.	4ff\	ve-	<CON_2v+2doub_rep
4.B-\	der	4r	.	.	.	4r	.	4.dd\	der	.
.	.	4d\	ve-	.	.	4ff\	ve-	.	.	.
8F\	mi	.	.	.	.	.	.	8a/	mi	.
=94	=94	=94	=94	=94	=94	=94	=94	=94	=94	.
4G\	f&eacute;	4.B-\	der	1d/]	.	4.dd\	der	4b-\	f&eacute;	.
4d\	ve-	.	.	.	.	.	.	4ff\	ve-	.
.	.	8F/	mi	.	.	8a/	mi	.	.	.
4.B-\	der	4G/	f&eacute;	.	.	4b-\	f&eacute;	4.dd\	der	.
.	.	4d\	ve-	.	.	4ff\	ve-	.	.	.
8F\	mi	.	.	.	.	.	.	8a/	mi	.
=95	=95	=95	=95	=95	=95	=95	=95	=95	=95	.
2G\	f&eacute;	4.B-\	der	2r	.	4.dd\	der	1b-\	f&eacute;	.
.	.	8c\	mi	.	.	8cc\	mi	.	.	.
2G\	la	2d\	f&eacute;	2g/	la	4b-\	f&eacute;	.	.	>
.	.	.	.	.	.	4b-\	la	.	.	<HOM_3v+CON_2v
=96	=96	=96	=96	=96	=96	=96	=96	=96	=96	.
4D\	tua	1r	.	4f/	tua	4a/	tua	2r	.	.
4E-\	vir-	.	.	4e-/	vir-	4g/	vir-	.	.	.
4.BB-/	t&uacute;	.	.	[2d/	t&uacute;	[2f/	t&uacute;	4r	.	.
.	.	.	.	.	.	.	.	4ff\	ve-	.
8C/	fa-	.	.	.	.	.	.	.	.	.
=97	=97	=97	=97	=97	=97	=97	=97	=97	=97	.
[1D\	ta-	4r	.	2d/]	.	2f/]	.	4.dd\	der	.
.	.	4f\	ve-	.	.	.	.	.	.	.
.	.	.	.	.	.	.	.	8a/	mi	.
.	.	4.d\	der	2d/	fa-	2a/	fa-	4ff\	f&eacute;	.
.	.	.	.	.	.	.	.	4dd\	la	.
.	.	8A/	mi	.	.	.	.	.	.	.
=98	=98	=98	=98	=98	=98	=98	=98	=98	=98	.
1D\_	.	4f\	f&eacute;	[1d/	ta-	[1dd\	ta-	4a/	tua	.
.	.	4d\	la	.	.	.	.	4b-\	vir-	.
.	.	4A/	tua	.	.	.	.	4f/	t&uacute;	.
.	.	4B-\	vir-	.	.	.	.	4g/	fa-	.
=99	=99	=99	=99	=99	=99	=99	=99	=99	=99	.
1D\]	.	4F/	t&uacute;	1d/]	.	1dd\]	.	4a/	ta-	.
.	.	4G/	fa-	.	.	.	.	2g/	.	.
.	.	2A/	ta-	.	.	.	.	.	.	.
.	.	.	.	.	.	.	.	4f/	.	.
=100	=100	=100	=100	=100	=100	=100	=100	=100	=100	.
1G\	le.	1G/	le.	1d/	le.	1bn\	le.	1g/	le.	>
==	==	==	==	==	==	==	==	==	==	==
*-	*-	*-	*-	*-	*-	*-	*-	*-	*-	*-